X:18
T:Mad Moll of the Cheshire Hunts
T:Dance: Titterstone Clee or One Cheese Toastie on the Bar
R:hornpipe
H:A variant of the tune in John Kirkpatrick's "Opus Pocus"
H:A Red Stags Morris dance composed by James Allwright
C:John Locke.
M:4/4
K:G
((3DEF) | G2 g>f e>dc>B | A>Bc>A B2 A2 | G2 g>f e>dc>B | d>cA>F G2 ((3DEF) |
G2 g>f e>dc>B | A>Bc>A B2 A2 | e2 d2 c2 B2 | c>AF>A G4 |]
D>GB>G D>GB>G | D>GB>d c2 A2 | D>FA>F D>FA>F | D>FA>c B2 G2 |
D>GB>G D>GB>G | D>GB>d c2 A2 | e2 d2 c2 B2 | c>AF>A G2 |]
